X: 7869
T: Compliments To Mary Janet
R: jig
M: 6/8
K: Dmajor
(A/B/c)|{/e}dfd AdA|FAF DEF|+>+G2E+>+TF2D|ECA, A,Bc|
dfd AdA|FAF Dgf|ecA ABc|d3 d:|
|:ef|!>!g2 d Bdg|Tfef {fg}a2d|ecA ABc|dfe def|
>!g2 d Bdg|Tfef {fg}a2d|ecA ABc|d3 d:|

